X: 10354
T: COPENHAGEN WALTZ
C:
%R: waltz
B: Elias Howe "The Musician's Companion" Part 1 1842 p.35 #4
S: http://imslp.org/wiki/The_Musician's_Companion_(Howe,_Elias)
Z: 2015 John Chambers <jc:trillian.mit.edu>
M: 3/4
L: 1/8
K: D
% - - - - - - - - - - - - - - - - - - - - - - - - -
fa |\
gb fa eg | fa d2 fa | eg A2 ce | df A2 fa |\
gb fa eg | fa d2 fa | eg A2 ce | d4 :: fa |\
eg A2 ce | fa A2 fa |
eg A2 ce | df A2 fa |\
gb fa eg | fa d2 fa | eg A2 ce | d4 :: a2 |\
b2 a2 f2 | d4 a2 | b2 a2 f2 | e4 a2 |\
b2 a2 f2 | dcdfaf | agfgec | d4 :|
% - - - - - - - - - - - - - - - - - - - - - - - - -
